X:19256
T: Zaplanski Cacak
Z: John Chambers <jc@eddie.mit.edu> http://eddie.mit.edu/~jc/music/
M: 2/4
L: 1/16
K: AMix
P: 2X
E |: "A"~A2E ~c2E | ~d2E ~c2E | ~A2E ~c2E | "E7"~B2E ~e2E \
  |  "A"~A2E ~c2E | ~d2E ~c2E | ~A2E ~c2E | "E7"~B2E ~B2E :|
P: 2X
E |: "E"^G2A ~B2A | ^G2A ~B2A | "B7"dcB A^GA | "E"B2E ~B2E \
  |  "E"^G2A ~B2A | ^G2A ~B2A | "B7"dcB A^GA | "E"~B3- B3 :|
  |: "Em"{A}B4- | B4- |B4- |B4 :|
P: 4X
G |: "Em"^ABc BAG | ABc BAG | ABc BAG | ~B3 G3 :|
P: 4X
C |: "F#"^ABc BAG | ~F2C ~^A2C | "Em"^ABc BAG | "F#"~F2C ~F3 :|
